X: 1
T: Granny Hold The Candle While I Shave The Chicken's Lip
M: 4/4
L: 1/8
R: reel
K: Amin
|: eA (3AAA c2(c2|c)Acd e2dc|eA (3AAA ABcA|BGdG eGef|
eA(3AAA c2(c2|c)Acd e2dB|GdBd e2dB|e2dB eA (3AAA:|
|: eaag a2ga|a2ga c'bag|a2ga eage|dged Bde2|
eaag a2ga|a2ga c'bac'|ba^gb a^ge^f|^gedB e2ed:|
